X: 1
T: Around The World For Sport
M: 6/8
L: 1/8
R: jig
K: Emin
EF|:&quot;Em&quot;G2G GFG|&quot;D&quot;A2A AGA|&quot;G&quot;B2B BAG|&quot;Bm&quot;B2E E2F|
&quot;Em&quot;G2G GFG|&quot;D&quot;A2A ABc|&quot;Bm&quot;dcB AGF|1 G2E E2F:|2G2E E2f||
&quot;Em&quot;g2e e2f|g2e e2f|&quot;A&quot;g2e a2g|&quot;D&quot;f2d def|
&quot;Em&quot;gfe a2f|gfe d2B|&quot;Bm&quot;A2B cBA|1 G2E E2f :|2 G2E E2F||
